icons/sync-16.svg

<svg width="16" height="16" viewBox="0 0 16 16" xmlns="http://www.w3.org/2000/svg">
  <path fill-rule="evenodd" clip-rule="evenodd" d="M7.99997 2.5C6.35466 2.5 4.87737 3.22227 3.86883 4.36881L5.07322 5.5732C5.23071 5.73069 5.11917 5.99998 4.89645 5.99998H1.25C1.11193 5.99998 1 5.88805 1 5.74998V2.10353C1 1.8808 1.26929 1.76926 1.42678 1.92675L2.8066 3.30658C4.08696 1.89075 5.93912 1 7.99997 1C11.5822 1 14.5351 3.69021 14.9501 7.16094C14.9993 7.57222 14.7058 7.94551 14.2945 7.99469C13.8832 8.04388 13.5099 7.75034 13.4607 7.33906C13.1348 4.61345 10.8136 2.5 7.99997 2.5ZM1.70545 8.00531C2.11673 7.95612 2.49001 8.24966 2.5392 8.66094C2.86516 11.3865 5.18631 13.5 7.99997 13.5C9.6453 13.5 11.1226 12.7777 12.1311 11.6312L10.9268 10.4268C10.7693 10.2693 10.8808 10 11.1036 10H14.75C14.8881 10 15 10.112 15 10.25V13.8965C15 14.1192 14.7307 14.2307 14.5732 14.0732L13.1934 12.6934C11.913 14.1092 10.0608 15 7.99997 15C4.41771 15 1.46489 12.3098 1.04981 8.83906C1.00063 8.42778 1.29417 8.05449 1.70545 8.00531Z"/>
</svg>

<svg xmlns="http://www.w3.org/2000/svg" width="16" height="16" viewBox="0 0 16 16"><path fill-rule="evenodd" d="M8 2.5a5.487 5.487 0 00-4.131 1.869l1.204 1.204A.25.25 0 014.896 6H1.25A.25.25 0 011 5.75V2.104a.25.25 0 01.427-.177l1.38 1.38A7.001 7.001 0 0114.95 7.16a.75.75 0 11-1.49.178A5.501 5.501 0 008 2.5zM1.705 8.005a.75.75 0 01.834.656 5.501 5.501 0 009.592 2.97l-1.204-1.204a.25.25 0 01.177-.427h3.646a.25.25 0 01.25.25v3.646a.25.25 0 01-.427.177l-1.38-1.38A7.001 7.001 0 011.05 8.84a.75.75 0 01.656-.834z"/></svg>
